X: 1
T: Astridin valssi
T: Astrids vals
O: Norrbotten
M: 3/4
L: 1/8
K: Am
E2 \
|:"Am"A4 B2 | c4 d2 | c3d cB | A2 c2 e2 | "Dm"a3g fe | d2 f2 a2 |  "Am"e6- | "E7"e6 :|
  "Dm"a3g fe | d2 f2 a2 | "Am"e3f ec | A4 B2 | c6 | "E7"B2 A2 B2 | "Am"A6 | A2 c2 e2 ||
  "Dm"a3g fe | "G7"d2 f2 a2 | "C"e3f ec | "F"A4 B2 | "Dm"c2 f2 e2 | "E7"d2 c2 B2 | "Am"A6- | A2 z2 |]
